X: 580
T:First clan march of the O'Sullivan's (The)
M: 6/8
R:jig
L:1/8
N:Posted to the woodenflute mailing list September 2002
Z:James T. Peeples
K: G
D|GBA ABd|edB A2G|GBA B2A|AGG G2D|\
GBA ABd|edB A2G|GBA B2A|AGG G2:|*
|:g|e2g e2g|e2g/e/ edB|d&gt;ed d2B| e/f/gB BAG|\
cBc dcd|e/f/gB  A2G|GBA B2A|AGG G2:|**
<end>
<start>
